X: 42828
T: Wideopen Lasses
R: three-two
M: 3/2
K: Gmajor
g2 d>c BG|EA2GFD|g2 d>c BG|EG F/G/A/F/ G2:|
GD AD BD|EA2GFD|GD AD BD|EG F/G/A/F/ G2:|
Bd c/d/e/c/ BG|EA2GFD|B>d c/d/e/c/ BG|EG F/G/A/F/ G2|
Bd c/d/e/c/ BG|EA2GFD|G/A/B/G/ A/B/c/A/ B/c/d|eg f/g/a/f/ g2|

